X:1
T:Carol of the bells
T:Carol of the bells
T:Jose Manzano
C:Jose Manzano
%%score 1 2 3 { 4 | 5 }
L:1/8
Q:3/8=60
M:6/8
K:Bb
V:1 treble nm="Soprano" snm="S."
V:2 treble nm="Violín" snm="Vln."
V:3 bass nm="Violonchelo" snm="Vc."
V:4 treble nm="Piano" snm="Pno."
V:5 bass 
V:1
"^\n" z6 | z6 | z6 | z6 | z6 | z6 | z6 | z6 | z6 | z6 | z6 | z6 || %12
"^\"Hark! How The Bells...\"" BA/B/G BA/B/G | BA/B/G BA/B/G | BA/B/G BA/B/G | BA/B/G BA/B/G | %16
"^\"Ding Dong...\"" BA/B/G BA/B/G | BA/B/G BA/B/G | BA/B/G BA/B/G | BA/B/G BA/B/G | %20
"^\"O, how the pound...\"" dc/d/B dc/d/B | dc/d/B dc/d/B | %22
"^\"Gaily the ring...\"" gg/g/f/e/ dd/d/c/B/ | cc/c/d/c/ G3 | %24
"^\"Merry merry...\"\n" D/=E/^F/G/A/B/ c/d/cB | D/=E/^F/G/A/B/ c/d/cB | %26
"^\"On, on they send..\"" BA/B/G BA/B/G | BA/B/G BA/B/G | z6 | z6 | z6 | z6 | z6 | z6 | z6 || %35
"^\"Hark! How The Bells...\"" BA/B/G BA/B/G | BA/B/G BA/B/G | BA/B/G BA/B/G | BA/B/G BA/B/G | %39
"^\"Ding Dong...\"" BA/B/G BA/B/G | BA/B/G BA/B/G | BA/B/G BA/B/G | BA/B/G BA/B/G | %43
"^\"O, how the pound...\"" dc/d/B dc/d/B | dc/d/B dc/d/B | %45
"^\"Gaily the ring...\"" gg/g/f/e/ dd/d/c/B/ | cc/c/d/c/ G3 | %47
"^\"Merry merry...\"\n" D/=E/^F/G/A/B/ c/d/cB | D/=E/^F/G/A/B/ c/d/cB | %49
"^\"On, on they send..\"" BA/B/G BA/B/G | BA/B/G BA/B/G | %51
"^\"Hark! How The Bells...\"" BA/B/G BA/B/G | BA/B/G BA/B/G | BA/B/G BA/B/G | BA/B/G BA/B/G | %55
"^\"Ding Dong...\"" BA/B/G BA/B/G | BA/B/G BA/B/G | BA/B/G BA/B/G | BA/B/G BA/B/G | %59
"^\"O, how the pound...\"" dc/d/B dc/d/B | dc/d/B dc/d/B | %61
"^\"Gaily the ring...\"" gg/g/f/e/ dd/d/c/B/ | cc/c/d/c/ G3 | %63
"^\"Merry merry...\"\n" D/=E/^F/G/A/B/ c/d/cB | D/=E/^F/G/A/B/ c/d/cB | %65
"^\"On, on they send..\"" BA/B/G BA/B/G | BA/B/G BA/B/G | z6 | z6 | z6 | z6 | z6 | z6 | z6 | z6 | %75
 z6 | z6 || %77
V:2
"Gm" z6 | z6 |"Eb" z6 |"Cm" z6 |"Gm" z3 (G/A/B/c/d/e/ | d6-) |"Eb" d(b/a/g/f/ e/d/c/B/c/A/ | %7
"Cm" B/A/G/F/E/D/ E/F/G/A/B/G/ |"Am7b5" c6) | B3 c3 |"D7" dcB A^FA |"Gm" G6 || z6 | z6 | z6 | z6 | %16
 d/d/ z/ d/d/ z/ d/d/ z/ d/d/ z/ | d/d/ z/ d/d/ z/ d/d/ z/ d/d/ z/ | %18
 d/d/ z/ d/d/ z/ d/d/ z/ d/d/ z/ | d/d/ z/ d/d/ z/ d/d/ z/ d/d/ z/ | B6 | c3 d3 | g3 d3 | c3 d3 | %24
 ^FGA B3 | ABc d3 | d3 c3 | B3 A3 | G6 | d3 =e3 | e3 d3 | (g2 d =e2 a | _aec cdB) | (GAB ^c3 | %34
 c3 BA/B/G) || z6 | z6 | z6 | z6 |"^Staccato\n" B/B/A/B/G/G/ B/B/A/B/G/G/ | %40
 B/B/A/B/G/G/ B/B/A/B/G/G/ | B/B/A/B/G/G/ B/B/A/B/G/G/ | B/B/A/B/G/G/ B/B/A/B/G/G/ | B6 | c3 d3 | %45
 g3 d3 | c3 d3 | ^FGA B3 | ABc d3 | d3 c3 | B3 A3 | d/d/ z/ d/d/ z/ d/d/ z/ d/d/ z/ | %52
 c/c/ z/ c/c/ z/ d/d/ z/ d/d/ z/ | e/e/ z/ e/e/ z/ d/d/ z/ d/d/ z/ | %54
 c/c/ z/ c/c/ z/ B/B/ z/ B/B/ z/ | d/d/ z/ d/d/ z/ d/d/ z/ d/d/ z/ | %56
 c/c/ z/ c/c/ z/ d/d/ z/ d/d/ z/ | e/e/ z/ e/e/ z/ d/d/ z/ d/d/ z/ | %58
 c/c/ z/ c/c/ z/ B/B/ z/ B/B/ z/ |"^Staccato\n" d/d/c/d/B/B/ d/d/c/d/B/B/ | %60
 d/d/c/d/B/B/ d/d/c/d/B/B/ | d/d/c/d/B/B/ d/d/c/d/B/B/ | d/d/c/d/B/B/ d/d/c/d/B/B/ | ^FGA B3 | %64
 ABc d3 | d3 c3 | B3 A3 | G6- | G6- | G6- | G6 | g6 | b6 | a6 | b6 | g6- | g6 || %77
V:3
 z6 | z6 | z6 | z6 | (G,,/A,,/B,,/C,/D,/E,/ D,3-) | D,(E,/D,/C,/B,,/ A,,/B,,/C,/D,/E,/F,/ | %6
 G,3) C,3 | E,3 C,3 | A,,3 C,3 | E,3 A,,3 | D,,/=E,,/^F,,/G,,/A,,/B,,/ C,/D,/C,/B,,/A,,/F,,/ | %11
 G,,6 || z6 | z6 | z6 | z6 | G,/G,/ z/ G,/G,/ z/ G,/G,/ z/ G,/G,/ z/ | %17
 G,/G,/ z/ G,/G,/ z/ G,/G,/ z/ G,/G,/ z/ | G,/G,/ z/ G,/G,/ z/ G,/G,/ z/ G,/G,/ z/ | %19
 G,/G,/ z/ G,/G,/ z/ G,/G,/ z/ G,/G,/ z/ | G,,3 D,3 | E,3 C,3 | G,,3 C,3 | E,3 G,,3 | %24
 D,,=E,,^F,, G,,3 | ^F,,G,,A,, B,,3 | F,3 E,3 | D,3 C,3 | G,6 | B,3 ^C3 | C3 B,3 | %31
 (G,2 D, =E,2 A, | _A,E,C, C,D,B,,) | (G,,A,,B,, ^C,3 | C,3 B,,A,,/B,,/G,,) || z6 | z6 | z6 | z6 | %39
 D,3 ^C,3 | C,3 B,,3 | E,3 D,3 | E,3 D,3 | G,,3 D,3 | E,3 C,3 | G,,3 C,3 | E,3 G,,3 | %47
 D,,=E,,^F,, G,,3 | ^F,,G,,A,, B,,3 | F,3 E,3 | D,3 C,3 | G,/G,/ z/ G,/G,/ z/ F,/F,/ z/ F,/F,/ z/ | %52
 E,/E,/ z/ E,/E,/ z/ D,/D,/ z/ D,/D,/ z/ | C,/C,/ z/ C,/C,/ z/ B,,/B,,/ z/ B,,/B,,/ z/ | %54
 A,,/A,,/ z/ A,,/A,,/ z/ G,,/G,,/ z/ G,,/G,,/ z/ | G,/G,/ z/ G,/G,/ z/ F,/F,/ z/ F,/F,/ z/ | %56
 E,/E,/ z/ E,/E,/ z/ D,/D,/ z/ D,/D,/ z/ | C,/C,/ z/ C,/C,/ z/ B,,/B,,/ z/ B,,/B,,/ z/ | %58
 A,,/A,,/ z/ A,,/A,,/ z/ G,,/G,,/ z/ G,,/G,,/ z/ | %59
"^Staccato\n" B,/B,/A,/B,/G,/G,/ B,/B,/A,/B,/G,/G,/ | B,/B,/A,/B,/G,/G,/ B,/B,/A,/B,/G,/G,/ | %61
 B,/B,/A,/B,/G,/G,/ B,/B,/A,/B,/G,/G,/ | B,/B,/A,/B,/G,/G,/ B,/B,/A,/B,/G,/G,/ | D,,=E,,^F,, G,,3 | %64
 ^F,,G,,A,, B,,3 | F,3 E,3 | D,3 C,3 | B,,6- | B,,6- | B,,6- | B,,6 | D,6 | E,6 | C,6 | ^F,6 | %75
 G,6- | G,6 || %77
V:4
 G/d/d'/d/c'/d/ b/d/a/d/g/d/ | D/d/d'/d/c'/d/ b/d/a/d/g/d/ | E/d/d'/d/c'/d/ b/d/a/d/g/d/ | %3
 C/d/d'/d/c'/d/ b/d/a/d/g/d/ | G/d/d'/d/c'/d/ b/d/a/d/g/d/ | D/d/d'/d/c'/d/ b/d/a/d/g/d/ | %6
 E/d/d'/d/c'/d/ b/d/a/d/g/d/ | C/d/d'/d/c'/d/ b/d/a/d/g/d/ | A,/A/a/A/g/A/ f/A/e/A/d/A/ | %9
 A,/A/a/A/g/A/ f/A/e/A/d/A/ | c/B/A/G/^F/E/ D/C/B,/A,/G,/^F,/ | G,/B,/D/G/B/d/ g/b/d'/c'/b/a/ || %12
 z6 | z6 | z6 | z6 | z6 | z6 | z6 | z6 | z6 | z6 | z6 | z6 | z6 | z6 | z6 | z6 | z6 | %29
 D/G/B/d/g/b/ ^c'/a/=e/^c/A/=E/ | E/_A/c/e/_a/c'/ d'/b/g/d/B/G/ | D/G/B/d/g/b/ ^c'/a/=e/^c/A/=E/ | %32
 E/_A/c/e/_a/c'/ d'/b/g/d/B/G/ | D/G/B/d/g/b/ ^c'/a/=e/^c/A/=E/ | E/_A/c/e/_a/c'/ d'/b/g/d/B/G/ || %35
 z6 | z6 | z6 | z6 | [db][ca]/b/[Bg] [db][ca]/b/[Bg] | [db][ca]/b/[Bg] [db][ca]/b/[Bg] | %41
 [db][ca]/b/[Bg] [db][ca]/b/[Bg] | [db][ca]/b/[Bg] [db][ca]/b/[Bg] | %43
 [db][ca]/b/[Bg] [db][ca]/b/[Bg] | [db][ca]/b/[Bg] [db][ca]/b/[Bg] | %45
 [db][ca]/b/[Bg] [db][ca]/b/[Bg] | [db][ca]/b/[Bg] [db][ca]/b/[Bg] | z6 | z6 | z6 | z6 | z6 | z6 | %53
 z6 | z6 | [db][ca]/b/[Bg] [db][ca]/b/[Bg] | [db][ca]/b/[Bg] [db][ca]/b/[Bg] | %57
 [db][ca]/b/[Bg] [db][ca]/b/[Bg] | [db][ca]/b/[Bg] [db][ca]/b/[Bg] | %59
 [db][ca]/b/[Bg] [db][ca]/b/[Bg] | [db][ca]/b/[Bg] [db][ca]/b/[Bg] | z6 | z6 | z6 | z6 | z6 | z6 | %67
 G/d/d'/d/c'/d/ b/d/a/d/g/d/ | D/d/d'/d/c'/d/ b/d/a/d/g/d/ | E/d/d'/d/c'/d/ b/d/a/d/g/d/ | %70
 C/d/d'/d/c'/d/ b/d/a/d/g/d/ | G/d/d'/d/c'/d/ b/d/a/d/g/d/ | D/d/d'/d/c'/d/ b/d/a/d/g/d/ | %73
 E/d/d'/d/c'/d/ b/d/a/d/g/d/ | C/d/d'/d/c'/d/ b/d/a/d/g/d/ | g6- | g6 || %77
V:5
 z6 | z6 | z6 | z6 | z6 | z6 | z6 | z6 | z6 | z6 | z6 | z6 || G,3 F,3 | E,3 D,3 | C,3 B,,3 | %15
 A,,3 G,,3 | G,3 F,3 | E,3 D,3 | C,3 B,,3 | A,,3 G,,3 |"Gm" G,3 D,3 |"Eb" E,3"Cm" C,3 | %22
"Gm" G,,3"C" C,3 |"Eb" E,3"Gm" G,,3 | D,,3 G,,3 | ^F,,3 G,,3 |"Gm" G,,3"Cm" C,3 | %27
"Gm" D,3"Am7b5" E,3 | G,,6 | [G,,G,]6 | [G,,G,]6 | [G,,G,]6 | [G,,G,]6 | [G,,G,]6 | [G,,G,]6 || %35
 G,3 F,3 | E,3 D,3 | C,3 B,,3 | A,,3 G,,3 | G,3 G,3 | G,3 G,3 |"Eb" E,3"Gm" D,3 | %42
"Cm" C,3"Gm" B,,3 |"Gm" G,3 D,3 |"Eb" E,3"Cm" C,3 |"Gm" G,,3"C" C,3 |"Eb" E,3"Gm" G,,3 | %47
 D,,3 G,,3 | ^F,,3 G,,3 | G,,3 E,3 | B,,3 C,3 | [G,,G,]6- | [G,,G,]6- | [G,,G,]6- | [G,,G,]6 | %55
 [G,,G,]6- | [G,,G,]6- | [G,,G,]6- | [G,,G,]6 |"Gm" [G,,G,]3 [D,,D,]3 |"Eb" [E,,E,]3"Cm" [C,,C,]3 | %61
"Gm" [G,,D,B,]3"C" [C,G,=E]3 |"Eb" [E,,B,,G,]3"Gm" [G,,D,B,]3 | D,,3 G,,3 | ^F,,3 G,,3 | %65
"Gm" [G,,D,B,]3"Eb" [E,,B,,G,]3 |"Bb" [B,,G,D]3"Cm" [C,G,E]3 | [G,,G,]6- | [G,,G,]6- | [G,,G,]6- | %70
 [G,,G,]6 | [G,,G,]6- | [G,,G,]6- | [G,,G,]6- | [G,,G,]6 | [G,,G,]6- | [G,,G,]6 || %77

